X: 305578
M: 2/4
L: 1/16
K: Bb
dc |\
c2b2B2 gf | eedc BAGF | DFBF EGc[BG] | Acdc BAGF |\
|: dc |\
baaf dBdf | gfge dB[GF]E | DBFB GecA | B2B2B2 :|


